X: 34206
T: Reel Of Tulloch, The
R: reel
M: 4/4
K: Amixolydian
|:e2Ac/d/ ecAa|e2 AB/c/ dBGB|e2 Ac/d/ eAcA|BE c/d/e dBGB:|
|:cA c/d/e cAAB|cA c/d/e dBGB|cA c/d/e cAcA|BE c/d/e dBGB:|

